X: 96
T:Silver Spire, The
T:John Brennan's Reel
M:C|
L:1/8
R:Reel
K:D
D2FE DEFA|dcde fdAF|G2BG FADF|GEFD CEA,C|!
D2FE DEFA|dcde fdAF|GABG FADF|1EDCE D3C:|2EDCE D2CB,|!
|:A,B,CD EFGE|FDEF GABc|dBBA Bcde|fdgf eABc|!
defd ceAc|dcdB AFDF|GABG FADF|1EDCE D2CB,:|2EDCE D3C|]!
